svg/color/dgtx.svg

<?xml version="1.0" encoding="UTF-8" ?>
<!DOCTYPE svg PUBLIC "-//W3C//DTD SVG 1.1//EN" "http://www.w3.org/Graphics/SVG/1.1/DTD/svg11.dtd">
<svg width="249pt" height="250pt" viewBox="0 0 249 250" version="1.1" xmlns="http://www.w3.org/2000/svg">
<g id="#ffffffff">
<path fill="#ffffff" opacity="1.00" d=" M 0.00 0.00 L 135.73 0.00 C 135.71 22.74 135.70 45.49 135.73 68.23 C 142.46 70.28 149.46 71.70 155.65 75.21 C 169.36 82.06 179.64 95.12 183.20 110.01 C 184.79 115.88 184.74 122.02 184.61 128.05 C 184.42 140.06 179.43 151.68 171.77 160.82 C 162.55 171.21 149.56 177.62 136.02 180.14 C 135.70 183.75 135.65 187.38 135.68 191.00 C 135.82 210.20 135.57 229.40 135.80 248.59 C 174.56 245.85 210.64 222.64 230.69 189.59 C 241.24 172.36 247.47 152.56 249.00 132.43 L 249.00 250.00 L 0.00 250.00 L 0.00 132.43 C 1.64 151.84 7.06 171.09 17.21 187.81 C 37.03 221.68 73.57 245.48 112.79 248.75 C 113.73 235.20 112.98 221.58 113.22 208.00 C 113.07 198.92 113.59 189.81 112.86 180.75 C 102.36 180.30 91.84 180.65 81.33 180.58 C 81.32 142.91 81.19 105.24 81.40 67.57 C 91.80 67.71 102.20 67.77 112.60 67.57 C 112.82 45.12 112.81 22.65 112.61 0.20 C 96.18 1.92 79.90 6.34 65.41 14.40 C 55.60 19.87 46.19 26.24 38.34 34.34 C 15.67 55.53 2.25 85.75 0.00 116.56 L 0.00 0.00 Z" />
<path fill="#ffffff" opacity="1.00" d=" M 141.32 0.00 L 249.00 0.00 L 249.00 115.59 C 247.49 99.19 243.27 82.99 235.76 68.29 C 220.71 38.06 192.89 14.40 160.48 4.78 C 154.16 2.93 147.59 2.05 141.32 0.00 Z" />
</g>
<g id="#2560f2ff">
<path fill="#2560f2" opacity="1.00" d=" M 135.73 0.00 L 141.32 0.00 C 147.59 2.05 154.16 2.93 160.48 4.78 C 192.89 14.40 220.71 38.06 235.76 68.29 C 243.27 82.99 247.49 99.19 249.00 115.59 L 249.00 132.43 C 247.47 152.56 241.24 172.36 230.69 189.59 C 210.64 222.64 174.56 245.85 135.80 248.59 C 135.57 229.40 135.82 210.20 135.68 191.00 C 135.65 187.38 135.70 183.75 136.02 180.14 C 149.56 177.62 162.55 171.21 171.77 160.82 C 179.43 151.68 184.42 140.06 184.61 128.05 C 184.74 122.02 184.79 115.88 183.20 110.01 C 179.64 95.12 169.36 82.06 155.65 75.21 C 149.46 71.70 142.46 70.28 135.73 68.23 C 135.70 45.49 135.71 22.74 135.73 0.00 Z" />
<path fill="#2560f2" opacity="1.00" d=" M 65.41 14.40 C 79.90 6.34 96.18 1.92 112.61 0.20 C 112.81 22.65 112.82 45.12 112.60 67.57 C 102.20 67.77 91.80 67.71 81.40 67.57 C 81.19 105.24 81.32 142.91 81.33 180.58 C 91.84 180.65 102.36 180.30 112.86 180.75 C 113.59 189.81 113.07 198.92 113.22 208.00 C 112.98 221.58 113.73 235.20 112.79 248.75 C 73.57 245.48 37.03 221.68 17.21 187.81 C 7.06 171.09 1.64 151.84 0.00 132.43 L 0.00 116.56 C 2.25 85.75 15.67 55.53 38.34 34.34 C 46.19 26.24 55.60 19.87 65.41 14.40 Z" />
</g>
</svg>

<?xml version="1.0" encoding="utf-8"?>
<!-- Generator: Adobe Illustrator 26.0.3, SVG Export Plug-In . SVG Version: 6.00 Build 0)  -->
<svg version="1.1" id="Layer_1" xmlns="http://www.w3.org/2000/svg" xmlns:xlink="http://www.w3.org/1999/xlink" x="0px" y="0px"
	 viewBox="0 0 249 250" style="enable-background:new 0 0 249 250;" xml:space="preserve">
<style type="text/css">
	.st0{fill:#2560F2;}
</style>
<g id="_x23_2560f2ff">
	<path class="st0" d="M135.7,0h5.6c6.3,2,12.8,2.9,19.2,4.8c32.4,9.6,60.2,33.3,75.3,63.5c7.5,14.7,11.7,30.9,13.2,47.3v16.8
		c-1.5,20.1-7.8,39.9-18.3,57.2c-20.1,33.1-56.1,56.3-94.9,59c-0.2-19.2,0-38.4-0.1-57.6c0-3.6,0-7.2,0.3-10.9
		c13.5-2.5,26.5-8.9,35.8-19.3c7.7-9.1,12.6-20.8,12.8-32.8c0.1-6,0.2-12.2-1.4-18c-3.6-14.9-13.8-28-27.6-34.8
		c-6.2-3.5-13.2-4.9-19.9-7C135.7,45.5,135.7,22.7,135.7,0z"/>
	<path class="st0" d="M65.4,14.4C79.9,6.3,96.2,1.9,112.6,0.2c0.2,22.4,0.2,44.9,0,67.4c-10.4,0.2-20.8,0.1-31.2,0
		c-0.2,37.7-0.1,75.3-0.1,113c10.5,0.1,21-0.3,31.5,0.2c0.7,9.1,0.2,18.2,0.4,27.2c-0.2,13.6,0.5,27.2-0.4,40.8
		c-39.2-3.3-75.8-27.1-95.6-60.9C7.1,171.1,1.6,151.8,0,132.4v-15.9c2.2-30.8,15.7-61,38.3-82.2C46.2,26.2,55.6,19.9,65.4,14.4z"/>
</g>
</svg>
